X: 12903
T: Ffidl Ffadl
R: polka
M: 2/4
K: Gmajor
M:4/4
|:G/G/G BG c2 GE|G/G/G BG A2 FD|G/G/G BG cA BG|A/B/c B/c/d A2 FD:|
|:c2 GE Ec GE|c2 GE DAFD|c2 GE Ec GE|A/B/c/A/ B/c/d/B/ A2 FD:|
|:G/G/G BG cA BG|G/G/G BG ADFD|G/G/G BG cA BG|A/B/c/A/ B/c/d/B/ A2 FD:|
|:c2 Ec Ec GE|c2 E/c/B/c/ DA FE/D/|c2 Ec Ec GE|A/B/c/A/ B/c/d/B/ A2 FD:|

